X:22302
T:Steamboat, The
R:Hornpipe
B:Tuneworks Tunebook 2 (https://www.tuneworks.co.uk/)
G:Tuneworks
Z:Jon Warbrick <jon.warbrick@googlemail.com>
M:4/4
L:1/8
K:G
|: (3def | "G" g2 bg d2 gd | BcdB G2 AB | "C" c2 ec A2 cA | "D7" FGAB cdef |
"G" g2 bg d2 gd | BcdB G2 AB | "C" cedc BAGF | "D" A2 G2"G" G2 :|
|: Bc | "G" dBdB g2 gf | "C" ecec a3 g | "D7" fefd gfgb | "A7" agfe"D7" defd |
"G" g2 bg d2 gd | BcdB G2 AB | "C" cedc BAGF | "D" A2 G2"G" G2 :|
